X: 21262
T: BRECHIN CASTLE
R: Strathspey.
%R: strathspey
B: W. Hamilton "Universal Tune-Book" Vol. 2 Glasgow 1846 p.126 #2
S: http://s3-eu-west-1.amazonaws.com/itma.dl.printmaterial/book_pdfs/hamiltonvol2web.pdf
Z: 2016 John Chambers <jc:trillian.mit.edu>
M: C
L: 1/16
K: Bb
% - - - - - - - - - - - - - - - - - - - - - - - - -
F2 !segno!|:\
BBB2 B4 {AB}B3df2d2 | BBB2 B4 {AB}Ac3A3F |\
BBB2 B4 {AB}B3df2d2 | eg3df3 c3BA2F2 :|\
f3B edcB f2B2eg3 | f3B edcB A2c2A3F |
f3B edcB f2B2d2f2 | eg3df3 c3BA2F2 |\
f3B edcB f2B2e2g2 | f3B edcB ABcB A2F2 |\
f3B edcB f2B2d2f2 | eg3db3 c3BA2F2 !segno!|]
% - - - - - - - - - - - - - - - - - - - - - - - - -

%%sep 1 1 500
%%sep 1 1 500

